static/assets/images/icons/hexens.svg

<svg width="257" height="256" viewBox="0 0 257 256" fill="none" xmlns="http://www.w3.org/2000/svg">
<path d="M183.409 187.493V155.727L148.281 128.342L183.409 100.957V68.6486H159.803V88.9122L128.515 113.01L97.7679 88.9122V68.6486H74.1622V100.961L109.29 128.346L74.1622 155.731V187.497H97.7679V167.229L128.508 143.132L159.796 167.229V187.493H183.409Z" fill="black"/>
<path d="M97.7679 21H62.0888L26.4062 56.5997V92.196H50.012V66.4547L71.9667 44.5509H97.7679V21Z" fill="black"/>
<path d="M207.573 189.683L185.601 211.605H159.8V235.156H195.482L231.161 199.542V163.942H207.573V189.683Z" fill="black"/>
</svg>

<svg xmlns="http://www.w3.org/2000/svg" fill="none" viewBox="0 0 257 256"><path fill="#000" d="M183.409 187.493v-31.766l-35.128-27.385 35.128-27.385V68.649h-23.606v20.263l-31.288 24.098-30.747-24.098V68.65H74.162v32.312l35.128 27.385-35.128 27.385v31.766h23.606V167.23l30.74-24.097 31.288 24.097v20.264zM97.768 21h-35.68L26.407 56.6v35.596h23.606V66.455L71.967 44.55h25.8zm109.805 168.683-21.972 21.922H159.8v23.551h35.682l35.679-35.614v-35.6h-23.588z"/></svg>
